flaticon/religion/judaism.svg

<svg xmlns="http://www.w3.org/2000/svg" width="32" height="32" viewBox="0 0 24 24">
    <path d="M 12 0 C 5.382812 0 0 5.382812 0 12 C 0 18.617188 5.382812 24 12 24 C 18.617188 24 24 18.617188 24 12 C 24 5.382812 18.617188 0 12 0 Z M 21.285156 5.792969 L 15.386719 5.792969 L 12.488281 0.839844 C 16.148438 1 19.363281 2.925781 21.285156 5.792969 Z M 8.128906 17.378906 L 2.789062 17.378906 L 5.460938 12.820312 Z M 2.789062 6.621094 L 8.128906 6.621094 L 5.460938 11.179688 Z M 5.941406 12 L 9.089844 6.621094 L 14.910156 6.621094 L 18.0625 12 L 14.910156 17.378906 L 9.089844 17.378906 Z M 18.539062 12.820312 L 21.210938 17.378906 L 15.871094 17.378906 Z M 15.871094 6.621094 L 21.210938 6.621094 L 18.539062 11.179688 Z M 14.425781 5.792969 L 9.574219 5.792969 L 12 1.644531 Z M 11.511719 0.839844 L 8.613281 5.792969 L 2.714844 5.792969 C 4.636719 2.925781 7.851562 1 11.511719 0.839844 Z M 0.828125 12 C 0.828125 10.1875 1.265625 8.476562 2.03125 6.964844 L 4.980469 12 L 2.03125 17.035156 C 1.265625 15.523438 0.828125 13.8125 0.828125 12 Z M 2.714844 18.207031 L 8.613281 18.207031 L 11.511719 23.160156 C 7.851562 23 4.636719 21.074219 2.714844 18.207031 Z M 9.574219 18.207031 L 14.425781 18.207031 L 12 22.355469 Z M 12.488281 23.160156 L 15.386719 18.207031 L 21.285156 18.207031 C 19.363281 21.074219 16.148438 23 12.488281 23.160156 Z M 19.019531 12 L 21.96875 6.964844 C 22.734375 8.476562 23.171875 10.1875 23.171875 12 C 23.171875 13.8125 22.734375 15.523438 21.96875 17.035156 Z M 19.019531 12"/>
</svg>

<svg xmlns="http://www.w3.org/2000/svg" width="32" height="32" viewBox="0 0 24 24">
    <path d="M12 0C5.383 0 0 5.383 0 12s5.383 12 12 12 12-5.383 12-12S18.617 0 12 0zm9.285 5.793h-5.898L12.488.84c3.66.16 6.875 2.086 8.797 4.953zM8.13 17.379h-5.34l2.672-4.559zM2.789 6.62h5.34L5.46 11.18zM5.941 12L9.09 6.621h5.82L18.062 12l-3.152 5.379H9.09zm12.598.82l2.672 4.559h-5.34zm-2.668-6.199h5.34l-2.672 4.559zm-1.445-.828H9.574L12 1.645zM11.512.84L8.613 5.793H2.715A11.178 11.178 0 0 1 11.512.84zM.828 12c0-1.813.438-3.523 1.203-5.035L4.981 12l-2.95 5.035A11.117 11.117 0 0 1 .828 12zm1.887 6.207h5.898l2.899 4.953a11.178 11.178 0 0 1-8.797-4.953zm6.86 0h4.85L12 22.355zm2.913 4.953l2.899-4.953h5.898a11.178 11.178 0 0 1-8.797 4.953zM19.02 12l2.949-5.035A11.117 11.117 0 0 1 23.172 12c0 1.813-.438 3.523-1.203 5.035zm0 0"/>
</svg>
